svg/Pictogram/pictograms-aem-0065r-wear_eye_protection-safety_glasses.svg

<?xml version="1.0" encoding="ISO-8859-1" standalone="yes"?>
<svg height="304.011" width="304.014">
  <metadata>
    <rdf:RDF xmlns:cc="http://web.resource.org/cc/" xmlns:dc="http://purl.org/dc/elements/1.1/" xmlns:rdf="http://www.w3.org/1999/02/22-rdf-syntax-ns#">
      <cc:Work rdf:about="">
        <dc:title></dc:title>
        <dc:description></dc:description>
        <dc:subject>
          <rdf:Bag>
            <rdf:li></rdf:li>
          </rdf:Bag>
        </dc:subject>
        <dc:publisher>
          <cc:Agent rdf:about="http://www.unece.org/trans/danger/publi/ghs/pictograms.html">
            <dc:title>Source: UNECE GHS of Classification and Labeling of Chemicals, Source: AEM Pictorial Database, Source: AEM Pictorial Database, Source: AEM Pictorial Database, Source: AEM Pictorial Database</dc:title>
          </cc:Agent>
        </dc:publisher>
        <dc:creator>
          <cc:Agent>
            <dc:title></dc:title>
          </cc:Agent>
        </dc:creator>
        <dc:rights>
          <cc:Agent>
            <dc:title></dc:title>
          </cc:Agent>
        </dc:rights>
        <dc:date></dc:date>
        <dc:format>image/svg+xml</dc:format>
        <dc:type rdf:resource="http://purl.org/dc/dcmitype/StillImage"/>
        <cc:license rdf:resource="http://en.wikipedia.org/wiki/Public_domain"/>
        <dc:language>en</dc:language>
      </cc:Work>
    </rdf:RDF>
  </metadata>
  <defs><marker id="ArrowEnd" markerHeight="3" markerUnits="strokeWidth" markerWidth="4" orient="auto" refX="0" refY="5" viewBox="0 0 10 10"><path d="M 0 0 L 10 5 L 0 10 z"/></marker><marker id="ArrowStart" markerHeight="3" markerUnits="strokeWidth" markerWidth="4" orient="auto" refX="10" refY="5" viewBox="0 0 10 10"><path d="M 10 0 L 0 5 L 10 10 z"/></marker> </defs>
  <g id="g2958" transform="matrix(1.3532768,0,0,1.3532781,-53.207834,-52.192858)">
    <path d="M 228.741 139.82C 224.952 118.574 210.026 99.1484 188.675 92.5274C 183.737 90.9994 178.452 90.1604 172.882 90.1444L 172.843 90.1524C 171.936 90.1484 171.022 90.1674 170.104 90.2104C 151.245 91.0744 131.358 102.781 120.893 121.933C 119.358 124.738 117.483 129.023 115.003 135.585L 178.655 135.589C 183.28 135.781 194.882 136.273 200.089 147.878C 202.765 153.828 202.214 156.952 201.315 158.238C 200.808 158.96 199.515 158.945 198.835 159.249C 198.675 159.32 197.3 158.538 197.3 153.57C 197.3 152.257 194.14 140.718 170.706 140.714C 170.659 140.718 165.921 141.015 159.772 141.015C 157.733 141.015 155.515 144.359 155.061 145.726C 154.554 147.249 146.882 164.898 146.581 165.585C 146.507 165.792 144.64 170.71 137.651 170.71L 104.073 170.706C 102.87 174.304 102.14 176.546 102.14 176.546C 101.925 177.124 101.476 178.574 101.57 179.218C 101.964 181.851 103.124 181.851 105.565 182.644L 118.05 184.808L 118.065 211.23C 118.069 222.058 126.85 230.828 137.675 230.824L 158.804 230.765C 201.538 227.652 229.46 193.699 229.686 150.929L 228.741 139.82" style="stroke:none; fill-rule:evenodd; fill:#000000"/>
    <path d="M 71.1477 150.745C 71.1477 150.745 82.3274 158.12 86.7142 161.019C 81.1477 163.933 53.5306 178.386 53.5306 178.386L 55.6204 182.374L 95.5618 161.468L 73.6282 146.992L 71.1477 150.745" style="stroke:none; fill-rule:evenodd; fill:#000000"/>
    <path d="M 45.7962 182.433L 47.8821 186.421L 53.2884 183.593L 51.2024 179.609L 45.7962 182.433" style="stroke:none; fill-rule:evenodd; fill:#000000"/>
    <path d="M 40.5188 185.199L 42.6048 189.187L 45.6595 187.585L 43.5696 183.601L 40.5188 185.199" style="stroke:none; fill-rule:evenodd; fill:#000000"/>
    <path d="M 79.5423 142.8L 61.6243 141.73L 69.6516 157.785L 79.5423 142.8" style="stroke:none; fill-rule:evenodd; fill:#000000"/>
    <path d="M 130.378 146.011C 127.893 146.011 125.878 148.027 125.878 150.511C 125.878 152.999 127.893 155.011 130.378 155.011C 132.866 155.011 134.878 152.999 134.878 150.511C 134.878 148.027 132.866 146.011 130.378 146.011zM 106.503 165.074L 112.538 150.738L 112.483 150.921C 112.44 150.042 112.421 149.156 112.421 148.265C 112.421 146.32 112.518 144.402 112.706 142.507L 140.753 142.507L 143.003 145.574L 143.003 163.199L 139.628 165.074L 106.503 165.074" style="stroke:none; fill-rule:evenodd; fill:#000000"/>
    <path d="M 102.218 143.531L 102.226 143.488C 102.277 143.238 103.526 137.335 110.026 137.128C 110.03 137.128 110.39 137.124 110.39 137.124L 180.636 137.124C 181.261 137.097 194.737 136.652 199.409 149.535C 201.315 154.796 200.823 156.855 200.522 157.495C 200.39 157.781 200.249 157.882 200.206 157.898C 199.831 157.89 198.503 157.89 198.503 154.433C 198.503 152.89 197.761 139.355 172.069 139.355C 171.948 139.363 167.276 139.656 161.206 139.656C 157.616 139.656 154.893 144.304 154.358 145.906C 153.964 147.093 148.136 160.554 145.925 165.644C 145.847 165.847 144.44 169.347 139.085 169.347C 139.085 169.347 102.718 169.347 102.718 169.347C 102.718 169.347 102.718 169.347 102.718 169.347C 102.718 169.343 100.222 169.042 98.8079 167.117C 98.1282 166.187 97.7884 165.011 97.7884 163.601C 97.7884 162.902 97.8704 162.148 98.0384 161.335C 98.0345 161.363 102.218 143.531 102.218 143.531zM 106.55 171.593L 139.085 171.601C 146.073 171.601 147.94 166.683 148.015 166.476C 148.315 165.788 155.987 148.14 156.495 146.617C 156.948 145.249 159.167 141.906 161.206 141.906C 167.354 141.906 172.093 141.609 172.14 141.605C 195.573 141.605 196.253 153.12 196.253 154.433C 196.253 159.398 198.768 160.14 200.268 160.14C 201.015 160.14 201.733 159.726 202.241 159.003C 203.14 157.718 203.749 154.902 201.522 148.769C 196.28 134.304 180.741 134.867 180.585 134.874L 116.374 134.874L 110.39 134.874L 109.948 134.882C 103.296 135.093 100.542 140.324 100.019 143.062L 100.027 143.015L 95.8431 160.851C 95.1907 163.992 95.5892 166.546 97.0149 168.472C 99.0618 171.238 102.468 171.581 102.613 171.593L 106.55 171.593" style="stroke:none; fill-rule:evenodd; fill:#000000"/>
    <path d="M 105.026 163.757C 105.026 163.753 103.776 163.609 103.182 162.702C 102.932 162.316 102.835 161.843 102.835 161.351C 102.835 160.683 103.011 159.976 103.21 159.398L 107.62 145.398C 107.667 145.234 108.323 142.796 110.362 142.796C 110.362 142.796 139.745 142.796 139.921 142.796C 140.354 142.859 142.108 143.281 142.108 145.906L 142.108 162.175L 142.124 162.277C 142.124 162.277 142.136 162.363 142.136 162.492C 142.136 162.722 142.097 163.085 141.882 163.335C 141.585 163.683 140.975 163.757 140.518 163.757C 140.518 163.757 105.03 163.757 105.026 163.757C 105.026 163.757 105.026 163.757 105.026 163.757zM 140.011 140.546L 110.362 140.546C 107.319 140.546 105.823 143.32 105.456 144.785C 105.472 144.726 101.07 158.699 101.07 158.699L 101.077 158.675C 100.347 160.839 100.429 162.617 101.32 163.96C 102.55 165.812 104.847 165.999 104.944 166.003L 140.518 166.007C 141.89 166.007 142.929 165.593 143.616 164.773C 144.261 163.995 144.386 163.085 144.386 162.492C 144.386 162.277 144.37 162.128 144.358 162.019C 144.358 161.886 144.358 145.906 144.358 145.906C 144.358 142.023 141.593 140.706 140.128 140.55L 140.069 140.546L 140.011 140.546" style="stroke:none; fill-rule:evenodd; fill:#000000"/>
    <path d="M 29.6204 265.39L 2.62042 265.39" style="stroke:#000000; stroke-width:0.5; fill:none"/>
    <path d="M 38.6204 274.39L 38.6204 301.39" style="stroke:#000000; stroke-width:0.5; fill:none"/>
    <path d="M 29.6204 38.6204L 2.62042 38.6204" style="stroke:#000000; stroke-width:0.5; fill:none"/>
    <path d="M 38.6204 29.6204L 38.6204 2.62042" style="stroke:#000000; stroke-width:0.5; fill:none"/>
    <path d="M 274.393 38.6204L 301.393 38.6204" style="stroke:#000000; stroke-width:0.5; fill:none"/>
    <path d="M 265.393 29.6204L 265.393 2.62042" style="stroke:#000000; stroke-width:0.5; fill:none"/>
    <path d="M 274.393 265.39L 301.393 265.39" style="stroke:#000000; stroke-width:0.5; fill:none"/>
    <path d="M 265.393 274.39L 265.393 301.39" style="stroke:#000000; stroke-width:0.5; fill:none"/>
  </g>
</svg>

<svg viewBox="0 0 304.01 304.01"><g transform="matrix(1.35328 0 0 1.35328-53.21-52.19)" fill-rule="evenodd"><path d="m228.74 139.82c-3.789-21.246-18.715-40.672-40.07-47.29-4.938-1.528-10.223-2.367-15.793-2.383l-.039.008c-.907-.004-1.821.015-2.739.058-18.859.864-38.746 12.571-49.21 31.723-1.535 2.805-3.41 7.09-5.89 13.652l63.65.004c4.625.192 16.227.684 21.434 12.289 2.676 5.95 2.125 9.07 1.226 10.36-.507.722-1.8.707-2.48 1.01-.16.071-1.535-.711-1.535-5.679 0-1.313-3.16-12.852-26.594-12.856-.047.004-4.785.301-10.934.301-2.039 0-4.257 3.344-4.711 4.711-.507 1.523-8.179 19.17-8.48 19.859-.074.207-1.941 5.125-8.93 5.125l-33.578-.004c-1.203 3.598-1.933 5.84-1.933 5.84-.215.578-.664 2.028-.57 2.672.394 2.633 1.554 2.633 3.995 3.426l12.485 2.164.015 26.422c.004 10.828 8.785 19.598 19.61 19.594l21.13-.059c42.734-3.113 70.66-37.07 70.882-79.84l-.945-11.11"/><path d="m71.15 150.75c0 0 11.18 7.375 15.567 10.274-5.567 2.914-33.18 17.367-33.18 17.367l2.09 3.988 39.941-20.906-21.934-14.476-2.481 3.753"/><path d="m45.796 182.43l2.086 3.988 5.406-2.828-2.086-3.984-5.406 2.824"/><path d="m40.519 185.2l2.086 3.988 3.055-1.602-2.09-3.984-3.051 1.598"/><path d="m79.54 142.8l-17.918-1.07 8.03 16.06 9.891-14.985"/><path d="m130.38 146.01c-2.485 0-4.5 2.02-4.5 4.5 0 2.488 2.02 4.5 4.5 4.5 2.488 0 4.5-2.01 4.5-4.5 0-2.484-2.01-4.5-4.5-4.5m-23.875 19.06l6.03-14.336-.055.183c-.043-.879-.062-1.765-.062-2.656 0-1.945.097-3.863.285-5.758h28.05l2.25 3.067v17.625l-3.375 1.875h-33.12"/><path d="m102.22 143.53l.008-.043c.051-.25 1.3-6.153 7.8-6.36.004 0 .364-.004.364-.004h70.25c.625-.027 14.1-.472 18.773 12.411 1.906 5.261 1.414 7.32 1.113 7.96-.132.286-.273.387-.316.403-.375-.008-1.703-.008-1.703-3.465 0-1.543-.742-15.08-26.434-15.08-.121.008-4.793.301-10.863.301-3.59 0-6.313 4.648-6.848 6.25-.394 1.187-6.222 14.648-8.433 19.738-.078.203-1.485 3.703-6.84 3.703 0 0-36.37 0-36.37 0 0-.004-2.496-.305-3.91-2.23-.68-.93-1.02-2.106-1.02-3.516 0-.699.082-1.453.25-2.266-.004.028 4.18-17.804 4.18-17.804m4.332 28.06l32.535.008c6.988 0 8.855-4.918 8.93-5.125.3-.688 7.972-18.336 8.48-19.859.453-1.368 2.672-4.711 4.711-4.711 6.148 0 10.887-.297 10.934-.301 23.433 0 24.11 11.515 24.11 12.828 0 4.965 2.515 5.707 4.02 5.707.747 0 1.465-.414 1.973-1.137.899-1.285 1.508-4.101-.719-10.234-5.242-14.465-20.781-13.902-20.937-13.895h-64.21-5.984l-.442.008c-6.652.211-9.406 5.442-9.929 8.18l.008-.047-4.184 17.836c-.652 3.141-.254 5.695 1.172 7.621 2.047 2.766 5.453 3.109 5.598 3.121h3.937"/><path d="m105.03 163.76c0-.004-1.25-.148-1.844-1.055-.25-.386-.347-.859-.347-1.351 0-.668.176-1.375.375-1.953l4.41-14c.047-.164.703-2.602 2.742-2.602 0 0 29.383 0 29.559 0 .433.063 2.187.485 2.187 3.11v16.269l.016.102c0 0 .012.086.012.215 0 .23-.039.593-.254.843-.297.348-.907.422-1.364.422 0 0-35.488 0-35.492 0m34.985-23.21h-29.649c-3.043 0-4.539 2.774-4.906 4.239.016-.059-4.386 13.914-4.386 13.914l.007-.024c-.73 2.164-.648 3.942.243 5.285 1.23 1.852 3.527 2.039 3.624 2.043l35.574.004c1.372 0 2.411-.414 3.098-1.234.645-.778.77-1.688.77-2.281 0-.215-.016-.364-.028-.473 0-.133 0-16.11 0-16.11 0-3.883-2.765-5.2-4.23-5.356l-.059-.004h-.058"/></g></svg>
